; G-Code generated by Simplify3D(R) Version 4.1.2
; Oct 5, 2021 at 10:17:45 AM
; Settings Summary
;   processName,Process1
;   applyToModels,ecg centre
;   profileName,Ender 3 (modified)
;   profileVersion,2018-06-08 13:27:13
;   baseProfile,Creality CR-10 Mini
;   printMaterial,PLA
;   printQuality,Medium
;   printExtruders,
;   extruderName,Primary Extruder
;   extruderToolheadNumber,0
;   extruderDiameter,0.4
;   extruderAutoWidth,1
;   extruderWidth,0.48
;   extrusionMultiplier,1
;   extruderUseRetract,1
;   extruderRetractionDistance,5
;   extruderExtraRestartDistance,0
;   extruderRetractionZLift,1
;   extruderRetractionSpeed,1800
;   extruderUseCoasting,1
;   extruderCoastingDistance,0.2
;   extruderUseWipe,0
;   extruderWipeDistance,5
;   primaryExtruder,0
;   layerHeight,0.2
;   topSolidLayers,4
;   bottomSolidLayers,4
;   perimeterOutlines,3
;   printPerimetersInsideOut,1
;   startPointOption,3
;   startPointOriginX,0
;   startPointOriginY,110
;   sequentialIslands,0
;   spiralVaseMode,0
;   firstLayerHeightPercentage,95
;   firstLayerWidthPercentage,105
;   firstLayerUnderspeed,0.4
;   useRaft,1
;   raftExtruder,0
;   raftTopLayers,2
;   raftBaseLayers,1
;   raftOffset,3
;   raftSeparationDistance,0.14
;   raftTopInfill,100
;   aboveRaftSpeedMultiplier,0.3
;   useSkirt,0
;   skirtExtruder,0
;   skirtLayers,2
;   skirtOutlines,6
;   skirtOffset,0
;   usePrimePillar,0
;   primePillarExtruder,999
;   primePillarWidth,12
;   primePillarLocation,7
;   primePillarSpeedMultiplier,1
;   useOozeShield,0
;   oozeShieldExtruder,999
;   oozeShieldOffset,2
;   oozeShieldOutlines,1
;   oozeShieldSidewallShape,1
;   oozeShieldSidewallAngle,30
;   oozeShieldSpeedMultiplier,1
;   infillExtruder,0
;   internalInfillPattern,Rectilinear
;   externalInfillPattern,Rectilinear
;   infillPercentage,30
;   outlineOverlapPercentage,15
;   infillExtrusionWidthPercentage,100
;   minInfillLength,5
;   infillLayerInterval,1
;   internalInfillAngles,45,-45
;   overlapInternalInfillAngles,0
;   externalInfillAngles,45,-45
;   generateSupport,1
;   supportExtruder,0
;   supportInfillPercentage,15
;   supportExtraInflation,1
;   supportBaseLayers,2
;   denseSupportExtruder,0
;   denseSupportLayers,2
;   denseSupportInfillPercentage,70
;   supportLayerInterval,1
;   supportHorizontalPartOffset,0.3
;   supportUpperSeparationLayers,1
;   supportLowerSeparationLayers,1
;   supportType,0
;   supportGridSpacing,4
;   maxOverhangAngle,45
;   supportAngles,45
;   temperatureName,Primary Extruder,Heated Bed
;   temperatureNumber,0,0
;   temperatureSetpointCount,2,1
;   temperatureSetpointLayers,1,2,1
;   temperatureSetpointTemperatures,210,195,50
;   temperatureStabilizeAtStartup,1,1
;   temperatureHeatedBed,0,1
;   fanLayers,1,2
;   fanSpeeds,0,100
;   blipFanToFullPower,0
;   adjustSpeedForCooling,1
;   minSpeedLayerTime,15
;   minCoolingSpeedSlowdown,20
;   increaseFanForCooling,0
;   minFanLayerTime,45
;   maxCoolingFanSpeed,100
;   increaseFanForBridging,0
;   bridgingFanSpeed,100
;   use5D,1
;   relativeEdistances,0
;   allowEaxisZeroing,1
;   independentExtruderAxes,0
;   includeM10123,0
;   stickySupport,1
;   applyToolheadOffsets,0
;   gcodeXoffset,0
;   gcodeYoffset,0
;   gcodeZoffset,0
;   overrideMachineDefinition,1
;   machineTypeOverride,0
;   strokeXoverride,220
;   strokeYoverride,220
;   strokeZoverride,250
;   originOffsetXoverride,0
;   originOffsetYoverride,0
;   originOffsetZoverride,0
;   homeXdirOverride,-1
;   homeYdirOverride,-1
;   homeZdirOverride,-1
;   flipXoverride,1
;   flipYoverride,-1
;   flipZoverride,1
;   toolheadOffsets,0,0|0,0|0,0|0,0|0,0|0,0
;   overrideFirmwareConfiguration,1
;   firmwareTypeOverride,RepRap (Marlin/Repetier/Sprinter)
;   GPXconfigOverride,r2
;   baudRateOverride,115200
;   overridePrinterModels,1
;   printerModelsOverride
;   startingGcode,G28 ; home all axes,G1 Z5 F3000 ; lift,G1 X5 Y10 F1500 ; move to prime,G1 Z0.2 F3000 ; get ready to prime,G92 E0 ; reset extrusion distance,G1 Y80 E10 F600 ; prime nozzle,G1 Y100 F5000 ; quick wipe
;   layerChangeGcode,
;   retractionGcode,
;   toolChangeGcode,
;   endingGcode,G28 X0 ; home x axis,M106 S0 ; turn off cooling fan,M104 S0 ; turn off extruder,M140 S0 ; turn off bed,M84 ; disable motors
;   exportFileFormat,gcode
;   celebration,0
;   celebrationSong,Funky Town
;   postProcessing,
;   defaultSpeed,3600
;   outlineUnderspeed,0.5
;   solidInfillUnderspeed,0.8
;   supportUnderspeed,0.8
;   rapidXYspeed,4800
;   rapidZspeed,1002
;   minBridgingArea,50
;   bridgingExtraInflation,0
;   bridgingExtrusionMultiplier,1
;   bridgingSpeedMultiplier,1
;   useFixedBridgingAngle,0
;   fixedBridgingAngle,0
;   applyBridgingToPerimeters,0
;   filamentDiameters,1.75|1.75|1.75|1.75|1.75|1.75
;   filamentPricesPerKg,46|46|46|46|46|46
;   filamentDensities,1.25|1.25|1.25|1.25|1.25|1.25
;   useMinPrintHeight,0
;   minPrintHeight,0
;   useMaxPrintHeight,0
;   maxPrintHeight,0
;   useDiaphragm,0
;   diaphragmLayerInterval,20
;   robustSlicing,1
;   mergeAllIntoSolid,0
;   onlyRetractWhenCrossingOutline,1
;   retractBetweenLayers,1
;   useRetractionMinTravel,0
;   retractionMinTravel,3
;   retractWhileWiping,0
;   onlyWipeOutlines,1
;   avoidCrossingOutline,0
;   maxMovementDetourFactor,3
;   toolChangeRetractionDistance,12
;   toolChangeExtraRestartDistance,-0.5
;   toolChangeRetractionSpeed,600
;   externalThinWallType,0
;   internalThinWallType,2
;   thinWallAllowedOverlapPercentage,10
;   singleExtrusionMinLength,1
;   singleExtrusionMinPrintingWidthPercentage,50
;   singleExtrusionMaxPrintingWidthPercentage,200
;   singleExtrusionEndpointExtension,0.2
;   horizontalSizeCompensation,0
G90
M82
M106 S0
M140 S50
M190 S50
M104 S210 T0
M109 S210 T0
G28 ; home all axes
G1 Z5 F3000 ; lift
G1 X5 Y10 F1500 ; move to prime
G1 Z0.2 F3000 ; get ready to prime
G92 E0 ; reset extrusion distance
G1 Y80 E10 F600 ; prime nozzle
G1 Y100 F5000 ; quick wipe
; process Process1
; layer 1, Z = 0.475
T0
G92 E0.0000
G1 E-5.0000 F1800
; feature raft
; tool H0.475 W0.800
G1 Z1.000 F1002
G1 X67.900 Y173.216 F4800
G1 Z0.475 F1002
G1 E0.0000 F1800
G92 E0.0000
G1 X67.900 Y46.783 E19.9745 F360
G1 X67.911 Y46.614 E20.0014
G1 X68.180 Y44.571 E20.3268
G1 X68.180 Y39.703 E21.0959
G1 X69.703 Y38.180 E21.4362
G1 X72.037 Y38.180 E21.8050
G1 X73.544 Y37.024 E22.1050
G1 X73.839 Y36.853 E22.1589
G1 X76.329 Y35.822 E22.5846
G1 X76.658 Y35.734 E22.6384
G1 X79.114 Y35.411 E23.0298
G1 X79.284 Y35.400 E23.0567
G1 X132.484 Y35.400 E31.4615
G1 X133.703 Y34.180 E31.7340
G1 X142.297 Y34.180 E33.0917
G1 X143.820 Y35.703 E33.4320
G1 X143.820 Y35.884 E33.4605
G1 X146.161 Y36.853 E33.8609
G1 X146.456 Y37.024 E33.9147
G1 X147.963 Y38.180 E34.2147
G1 X150.297 Y38.180 E34.5835
G1 X151.820 Y39.703 E34.9238
G1 X151.820 Y44.571 E35.6929
G1 X152.089 Y46.614 E36.0183
G1 X152.100 Y46.783 E36.0452
G1 X152.100 Y173.216 E56.0197
G1 X152.089 Y173.386 E56.0466
G1 X151.820 Y175.428 E56.3721
G1 X151.820 Y180.297 E57.1413
G1 X150.297 Y181.820 E57.4816
G1 X147.962 Y181.820 E57.8505
G1 X146.456 Y182.975 E58.1503
G1 X146.161 Y183.146 E58.2042
G1 X143.671 Y184.177 E58.6299
G1 X143.342 Y184.265 E58.6837
G1 X140.886 Y184.588 E59.0751
G1 X140.716 Y184.600 E59.1020
G1 X79.284 Y184.600 E68.8074
G1 X79.114 Y184.588 E68.8343
G1 X76.658 Y184.265 E69.2257
G1 X76.329 Y184.177 E69.2796
G1 X73.839 Y183.146 E69.7053
G1 X73.544 Y182.975 E69.7591
G1 X72.038 Y181.820 E70.0589
G1 X69.703 Y181.820 E70.4279
G1 X68.180 Y180.297 E70.7682
G1 X68.180 Y175.428 E71.5374
G1 X67.915 Y173.415 E71.8581
G1 X67.911 Y173.386 F360
G1 X67.900 Y173.216
G92 E0.0000
G1 E-5.0000 F1800
G1 Z1.475 F1002
G1 X144.391 Y183.143 F4800
G1 Z0.475 F1002
G1 E0.0000 F1800
G92 E0.0000
G1 X75.609 Y183.143 E10.8665 F360
G1 X74.140 Y182.534 E11.1177
G1 X73.922 Y182.409 E11.1574
G1 X72.269 Y181.140 E11.4866
G1 X69.985 Y181.140 E11.8476
G1 X69.702 Y180.857 E11.9107
G1 X150.298 Y180.857 E24.6438
G1 X151.140 Y180.015 E24.8319
G1 X151.140 Y178.571 E25.0600
G1 X68.860 Y178.571 E38.0591
G1 X68.860 Y176.286 E38.4202
G1 X151.140 Y176.286 E51.4192
G1 X151.140 Y175.383 E51.5618
G1 X151.322 Y174.000 E51.7822
G1 X68.678 Y174.000 E64.8388
G1 X68.588 Y173.319 E64.9474
G1 X68.580 Y173.194 E64.9672
G1 X68.580 Y171.714 E65.2009
G1 X151.420 Y171.714 E78.2884
G1 X151.420 Y169.429 E78.6495
G1 X68.580 Y169.429 E91.7371
G1 X68.580 Y167.143 E92.0982
G1 X151.420 Y167.143 E105.1857
G1 X151.420 Y164.857 E105.5468
G1 X68.580 Y164.857 E118.6344
G1 X68.580 Y162.571 E118.9955
G1 X151.420 Y162.571 E132.0830
G1 X151.420 Y160.286 E132.4441
G1 X68.580 Y160.286 E145.5316
G1 X68.580 Y158.000 E145.8927
G1 X151.420 Y158.000 E158.9803
G1 X151.420 Y155.714 E159.3414
G1 X68.580 Y155.714 E172.4289
G1 X68.580 Y153.429 E172.7900
G1 X151.420 Y153.429 E185.8776
G1 X151.420 Y151.143 E186.2387
G1 X68.580 Y151.143 E199.3262
G1 X68.580 Y148.857 E199.6873
G1 X151.420 Y148.857 E212.7748
G1 X151.420 Y146.571 E213.1359
G1 X68.580 Y146.571 E226.2235
G1 X68.580 Y144.286 E226.5846
G1 X151.420 Y144.286 E239.6721
G1 X151.420 Y142.000 E240.0332
G1 X68.580 Y142.000 E253.1208
G1 X68.580 Y139.714 E253.4819
G1 X151.420 Y139.714 E266.5694
G1 X151.420 Y137.429 E266.9305
G1 X68.580 Y137.429 E280.0180
G1 X68.580 Y135.143 E280.3791
G1 X151.420 Y135.143 E293.4667
G1 X151.420 Y132.857 E293.8278
G1 X68.580 Y132.857 E306.9153
G1 X68.580 Y130.571 E307.2764
G1 X151.420 Y130.571 E320.3640
G1 X151.420 Y128.286 E320.7251
G1 X68.580 Y128.286 E333.8126
G1 X68.580 Y126.000 E334.1737
G1 X151.420 Y126.000 E347.2612
G1 X151.420 Y123.714 E347.6223
G1 X68.580 Y123.714 E360.7099
G1 X68.580 Y121.429 E361.0710
G1 X151.420 Y121.429 E374.1585
G1 X151.420 Y119.143 E374.5196
G1 X68.580 Y119.143 E387.6072
G1 X68.580 Y116.857 E387.9683
G1 X151.420 Y116.857 E401.0558
G1 X151.420 Y114.571 E401.4169
G1 X68.580 Y114.571 E414.5044
G1 X68.580 Y112.286 E414.8655
G1 X151.420 Y112.286 E427.9531
G1 X151.420 Y110.000 E428.3142
G1 X68.580 Y110.000 E441.4017
G1 X68.580 Y107.714 E441.7628
G1 X151.420 Y107.714 E454.8504
G1 X151.420 Y105.429 E455.2115
G1 X68.580 Y105.429 E468.2990
G1 X68.580 Y103.143 E468.6601
G1 X151.420 Y103.143 E481.7476
G1 X151.420 Y100.857 E482.1088
G1 X68.580 Y100.857 E495.1963
G1 X68.580 Y98.571 E495.5574
G1 X151.420 Y98.571 E508.6449
G1 X151.420 Y96.286 E509.0060
G1 X68.580 Y96.286 E522.0936
G1 X68.580 Y94.000 E522.4547
G1 X151.420 Y94.000 E535.5422
G1 X151.420 Y91.714 E535.9033
G1 X68.580 Y91.714 E548.9908
G1 X68.580 Y89.429 E549.3520
G1 X151.420 Y89.429 E562.4395
G1 X151.420 Y87.143 E562.8006
G1 X68.580 Y87.143 E575.8881
G1 X68.580 Y84.857 E576.2492
G1 X151.420 Y84.857 E589.3368
G1 X151.420 Y82.571 E589.6979
G1 X68.580 Y82.571 E602.7854
G1 X68.580 Y80.286 E603.1465
G1 X151.420 Y80.286 E616.2340
G1 X151.420 Y78.000 E616.5952
G1 X68.580 Y78.000 E629.6827
G1 X68.580 Y75.714 E630.0438
G1 X151.420 Y75.714 E643.1313
G1 X151.420 Y73.429 E643.4924
G1 X68.580 Y73.429 E656.5800
G1 X68.580 Y71.143 E656.9411
G1 X151.420 Y71.143 E670.0286
G1 X151.420 Y68.857 E670.3897
G1 X68.580 Y68.857 E683.4772
G1 X68.580 Y66.571 E683.8384
G1 X151.420 Y66.571 E696.9259
G1 X151.420 Y64.286 E697.2870
G1 X68.580 Y64.286 E710.3745
G1 X68.580 Y62.000 E710.7356
G1 X151.420 Y62.000 E723.8232
G1 X151.420 Y59.714 E724.1843
G1 X68.580 Y59.714 E737.2718
G1 X68.580 Y57.429 E737.6329
G1 X151.420 Y57.429 E750.7204
G1 X151.420 Y55.143 E751.0816
G1 X68.580 Y55.143 E764.1691
G1 X68.580 Y52.857 E764.5302
G1 X151.420 Y52.857 E777.6177
G1 X151.420 Y50.571 E777.9788
G1 X68.580 Y50.571 E791.0664
G1 X68.580 Y48.286 E791.4275
G1 X151.420 Y48.286 E804.5150
G1 X151.420 Y46.806 E804.7488
G1 X151.412 Y46.680 E804.7687
G1 X151.322 Y46.000 E804.8771
G1 X68.678 Y46.000 E817.9337
G1 X68.860 Y44.616 E818.1543
G1 X68.860 Y43.714 E818.2967
G1 X151.140 Y43.714 E831.2958
G1 X151.140 Y41.429 E831.6569
G1 X68.860 Y41.429 E844.6560
G1 X68.860 Y39.985 E844.8841
G1 X69.702 Y39.143 E845.0722
G1 X150.298 Y39.143 E857.8052
G1 X150.015 Y38.860 E857.8684
G1 X147.732 Y38.860 E858.2292
G1 X146.078 Y37.591 E858.5586
G1 X145.860 Y37.465 E858.5984
G1 X144.393 Y36.857 E858.8492
G1 X75.807 Y36.857 E869.6848
G1 X75.607 Y36.857 F360
G92 E0.0000
G1 E-5.0000 F1800
; layer 2, Z = 0.697
M106 S255
M104 S195 T0
; tool H0.222 W0.400
G1 Z1.475 F1002
G1 X70.014 Y182.020 F4800
G1 Z0.697 F1002
G1 E0.0000 F1800
G92 E0.0000
G1 X67.980 Y179.986 E0.1063 F2700
G1 X67.980 Y179.420 E0.1272
G1 X70.580 Y182.020 E0.2631
G1 X71.146 Y182.020 E0.2840
G1 X67.980 Y178.854 E0.4495
G1 X67.980 Y178.289 E0.4704
G1 X71.711 Y182.020 E0.6654
G1 X71.970 Y182.020 E0.6750
G1 X73.288 Y183.031 E0.7363
G1 X67.980 Y177.723 E1.0137
G1 X67.980 Y177.157 E1.0347
G1 X74.429 Y183.607 E1.3717
G1 X75.395 Y184.007 E1.4103
G1 X67.980 Y176.592 E1.7979
G1 X67.980 Y176.026 E1.8188
G1 X76.341 Y184.387 E2.2558
G1 X76.619 Y184.462 E2.2664
G1 X77.036 Y184.517 E2.2820
G1 X67.980 Y175.460 E2.7553
G1 X67.980 Y175.441 E2.7560
G1 X67.897 Y174.812 E2.7794
G1 X77.688 Y184.602 E3.2911
G1 X78.339 Y184.688 E3.3154
G1 X67.811 Y174.160 E3.8656
G1 X67.726 Y173.509 E3.8899
G1 X78.991 Y184.774 E4.4787
G1 X79.094 Y184.788 E4.4825
G1 X79.277 Y184.800 E4.4893
G1 X79.582 Y184.800 E4.5006
G1 X67.700 Y172.917 E5.1216
G1 X67.700 Y172.352 E5.1425
G1 X80.148 Y184.800 E5.7930
G1 X80.713 Y184.800 E5.8139
G1 X67.700 Y171.786 E6.4941
G1 X67.700 Y171.220 E6.5150
G1 X81.279 Y184.800 E7.2246
G1 X81.845 Y184.800 E7.2456
G1 X67.700 Y170.655 E7.9848
G1 X67.700 Y170.089 E8.0057
G1 X82.410 Y184.800 E8.7745
G1 X82.976 Y184.800 E8.7954
G1 X67.700 Y169.523 E9.5938
G1 X67.700 Y168.958 E9.6147
G1 X83.542 Y184.800 E10.4427
G1 X84.108 Y184.800 E10.4636
G1 X67.700 Y168.392 E11.3211
G1 X67.700 Y167.826 E11.3420
G1 X84.673 Y184.800 E12.2291
G1 X85.239 Y184.800 E12.2500
G1 X67.700 Y167.261 E13.1666
G1 X67.700 Y166.695 E13.1875
G1 X85.805 Y184.800 E14.1337
G1 X86.370 Y184.800 E14.1546
G1 X67.700 Y166.129 E15.1304
G1 X67.700 Y165.564 E15.1513
G1 X86.936 Y184.800 E16.1566
G1 X87.502 Y184.800 E16.1775
G1 X67.700 Y164.998 E17.2124
G1 X67.700 Y164.432 E17.2333
G1 X88.067 Y184.800 E18.2978
G1 X88.633 Y184.800 E18.3187
G1 X67.700 Y163.867 E19.4127
G1 X67.700 Y163.301 E19.4336
G1 X89.199 Y184.800 E20.5572
G1 X89.764 Y184.800 E20.5781
G1 X67.700 Y162.735 E21.7313
G1 X67.700 Y162.169 E21.7522
G1 X90.330 Y184.800 E22.9349
G1 X90.896 Y184.800 E22.9558
G1 X67.700 Y161.604 E24.1681
G1 X67.700 Y161.038 E24.1890
G1 X91.461 Y184.800 E25.4309
G1 X92.027 Y184.800 E25.4518
G1 X67.700 Y160.472 E26.7232
G1 X67.700 Y159.907 E26.7441
G1 X92.593 Y184.800 E28.0451
G1 X93.158 Y184.800 E28.0660
G1 X67.700 Y159.341 E29.3965
G1 X67.700 Y158.775 E29.4174
G1 X93.724 Y184.800 E30.7775
G1 X94.290 Y184.800 E30.7984
G1 X67.700 Y158.210 E32.1881
G1 X67.700 Y157.644 E32.2090
G1 X94.856 Y184.800 E33.6283
G1 X95.421 Y184.800 E33.6492
G1 X67.700 Y157.078 E35.0980
G1 X67.700 Y156.513 E35.1189
G1 X95.987 Y184.800 E36.5972
G1 X96.553 Y184.800 E36.6181
G1 X67.700 Y155.947 E38.1261
G1 X67.700 Y155.381 E38.1470
G1 X97.118 Y184.800 E39.6845
G1 X97.684 Y184.800 E39.7054
G1 X67.700 Y154.816 E41.2724
G1 X67.700 Y154.250 E41.2933
G1 X98.250 Y184.800 E42.8900
G1 X98.815 Y184.800 E42.9109
G1 X67.700 Y153.684 E44.5371
G1 X67.700 Y153.118 E44.5580
G1 X99.381 Y184.800 E46.2137
G1 X99.947 Y184.800 E46.2346
G1 X67.700 Y152.553 E47.9199
G1 X67.700 Y151.987 E47.9409
G1 X100.512 Y184.800 E49.6557
G1 X101.078 Y184.800 E49.6766
G1 X67.700 Y151.421 E51.4211
G1 X67.700 Y150.856 E51.4420
G1 X101.644 Y184.800 E53.2160
G1 X102.209 Y184.800 E53.2369
G1 X67.700 Y150.290 E55.0405
G1 X67.700 Y149.724 E55.0614
G1 X102.775 Y184.800 E56.8945
G1 X103.341 Y184.800 E56.9154
