; G-Code generated by Simplify3D(R) Version 4.1.2
; Sep 29, 2021 at 5:49:38 PM
; Settings Summary
;   processName,Process1
;   applyToModels,ecg box base
;   profileName,Ender 3 (modified)
;   profileVersion,2018-06-08 13:27:13
;   baseProfile,Creality CR-10 Mini
;   printMaterial,PLA
;   printQuality,Medium
;   printExtruders,
;   extruderName,Primary Extruder
;   extruderToolheadNumber,0
;   extruderDiameter,0.4
;   extruderAutoWidth,1
;   extruderWidth,0.48
;   extrusionMultiplier,1
;   extruderUseRetract,1
;   extruderRetractionDistance,5
;   extruderExtraRestartDistance,0
;   extruderRetractionZLift,1
;   extruderRetractionSpeed,1800
;   extruderUseCoasting,1
;   extruderCoastingDistance,0.2
;   extruderUseWipe,0
;   extruderWipeDistance,5
;   primaryExtruder,0
;   layerHeight,0.2
;   topSolidLayers,4
;   bottomSolidLayers,4
;   perimeterOutlines,3
;   printPerimetersInsideOut,1
;   startPointOption,3
;   startPointOriginX,0
;   startPointOriginY,110
;   sequentialIslands,0
;   spiralVaseMode,0
;   firstLayerHeightPercentage,95
;   firstLayerWidthPercentage,105
;   firstLayerUnderspeed,0.4
;   useRaft,1
;   raftExtruder,0
;   raftTopLayers,3
;   raftBaseLayers,2
;   raftOffset,3
;   raftSeparationDistance,0.14
;   raftTopInfill,100
;   aboveRaftSpeedMultiplier,0.3
;   useSkirt,0
;   skirtExtruder,0
;   skirtLayers,2
;   skirtOutlines,6
;   skirtOffset,0
;   usePrimePillar,0
;   primePillarExtruder,999
;   primePillarWidth,12
;   primePillarLocation,7
;   primePillarSpeedMultiplier,1
;   useOozeShield,0
;   oozeShieldExtruder,999
;   oozeShieldOffset,2
;   oozeShieldOutlines,1
;   oozeShieldSidewallShape,1
;   oozeShieldSidewallAngle,30
;   oozeShieldSpeedMultiplier,1
;   infillExtruder,0
;   internalInfillPattern,Rectilinear
;   externalInfillPattern,Rectilinear
;   infillPercentage,30
;   outlineOverlapPercentage,15
;   infillExtrusionWidthPercentage,100
;   minInfillLength,5
;   infillLayerInterval,1
;   internalInfillAngles,45,-45
;   overlapInternalInfillAngles,0
;   externalInfillAngles,45,-45
;   generateSupport,1
;   supportExtruder,0
;   supportInfillPercentage,15
;   supportExtraInflation,1
;   supportBaseLayers,2
;   denseSupportExtruder,0
;   denseSupportLayers,2
;   denseSupportInfillPercentage,70
;   supportLayerInterval,1
;   supportHorizontalPartOffset,0.3
;   supportUpperSeparationLayers,1
;   supportLowerSeparationLayers,1
;   supportType,0
;   supportGridSpacing,4
;   maxOverhangAngle,45
;   supportAngles,45
;   temperatureName,Primary Extruder,Heated Bed
;   temperatureNumber,0,0
;   temperatureSetpointCount,2,1
;   temperatureSetpointLayers,1,2,1
;   temperatureSetpointTemperatures,210,195,50
;   temperatureStabilizeAtStartup,1,1
;   temperatureHeatedBed,0,1
;   fanLayers,1,2
;   fanSpeeds,0,100
;   blipFanToFullPower,0
;   adjustSpeedForCooling,1
;   minSpeedLayerTime,15
;   minCoolingSpeedSlowdown,20
;   increaseFanForCooling,0
;   minFanLayerTime,45
;   maxCoolingFanSpeed,100
;   increaseFanForBridging,0
;   bridgingFanSpeed,100
;   use5D,1
;   relativeEdistances,0
;   allowEaxisZeroing,1
;   independentExtruderAxes,0
;   includeM10123,0
;   stickySupport,1
;   applyToolheadOffsets,0
;   gcodeXoffset,0
;   gcodeYoffset,0
;   gcodeZoffset,0
;   overrideMachineDefinition,1
;   machineTypeOverride,0
;   strokeXoverride,220
;   strokeYoverride,220
;   strokeZoverride,250
;   originOffsetXoverride,0
;   originOffsetYoverride,0
;   originOffsetZoverride,0
;   homeXdirOverride,-1
;   homeYdirOverride,-1
;   homeZdirOverride,-1
;   flipXoverride,1
;   flipYoverride,-1
;   flipZoverride,1
;   toolheadOffsets,0,0|0,0|0,0|0,0|0,0|0,0
;   overrideFirmwareConfiguration,1
;   firmwareTypeOverride,RepRap (Marlin/Repetier/Sprinter)
;   GPXconfigOverride,r2
;   baudRateOverride,115200
;   overridePrinterModels,1
;   printerModelsOverride
;   startingGcode,G28 ; home all axes,G1 Z5 F3000 ; lift,G1 X5 Y10 F1500 ; move to prime,G1 Z0.2 F3000 ; get ready to prime,G92 E0 ; reset extrusion distance,G1 Y80 E10 F600 ; prime nozzle,G1 Y100 F5000 ; quick wipe
;   layerChangeGcode,
;   retractionGcode,
;   toolChangeGcode,
;   endingGcode,G28 X0 ; home x axis,M106 S0 ; turn off cooling fan,M104 S0 ; turn off extruder,M140 S0 ; turn off bed,M84 ; disable motors
;   exportFileFormat,gcode
;   celebration,0
;   celebrationSong,Funky Town
;   postProcessing,
;   defaultSpeed,3600
;   outlineUnderspeed,0.5
;   solidInfillUnderspeed,0.8
;   supportUnderspeed,0.8
;   rapidXYspeed,4800
;   rapidZspeed,1002
;   minBridgingArea,50
;   bridgingExtraInflation,0
;   bridgingExtrusionMultiplier,1
;   bridgingSpeedMultiplier,1
;   useFixedBridgingAngle,0
;   fixedBridgingAngle,0
;   applyBridgingToPerimeters,0
;   filamentDiameters,1.75|1.75|1.75|1.75|1.75|1.75
;   filamentPricesPerKg,46|46|46|46|46|46
;   filamentDensities,1.25|1.25|1.25|1.25|1.25|1.25
;   useMinPrintHeight,0
;   minPrintHeight,0
;   useMaxPrintHeight,0
;   maxPrintHeight,0
;   useDiaphragm,0
;   diaphragmLayerInterval,20
;   robustSlicing,1
;   mergeAllIntoSolid,0
;   onlyRetractWhenCrossingOutline,1
;   retractBetweenLayers,1
;   useRetractionMinTravel,0
;   retractionMinTravel,3
;   retractWhileWiping,0
;   onlyWipeOutlines,1
;   avoidCrossingOutline,0
;   maxMovementDetourFactor,3
;   toolChangeRetractionDistance,12
;   toolChangeExtraRestartDistance,-0.5
;   toolChangeRetractionSpeed,600
;   externalThinWallType,0
;   internalThinWallType,2
;   thinWallAllowedOverlapPercentage,10
;   singleExtrusionMinLength,1
;   singleExtrusionMinPrintingWidthPercentage,50
;   singleExtrusionMaxPrintingWidthPercentage,200
;   singleExtrusionEndpointExtension,0.2
;   horizontalSizeCompensation,0
G90
M82
M106 S0
M140 S50
M190 S50
M104 S210 T0
M109 S210 T0
G28 ; home all axes
G1 Z5 F3000 ; lift
G1 X5 Y10 F1500 ; move to prime
G1 Z0.2 F3000 ; get ready to prime
G92 E0 ; reset extrusion distance
G1 Y80 E10 F600 ; prime nozzle
G1 Y100 F5000 ; quick wipe
; process Process1
; layer 1, Z = 0.475
T0
G92 E0.0000
G1 E-5.0000 F1800
; feature raft
; tool H0.475 W0.800
G1 Z1.000 F1002
G1 X67.900 Y46.810 F4800
G1 Z0.475 F1002
G1 E0.0000 F1800
G92 E0.0000
G1 X67.911 Y46.642 E0.0266 F360
G1 X68.234 Y44.161 E0.4219
G1 X68.322 Y43.829 E0.4760
G1 X69.354 Y41.339 E0.9019
G1 X69.524 Y41.044 E0.9558
G1 X71.165 Y38.906 E1.3815
G1 X71.406 Y38.665 E1.4353
G1 X73.544 Y37.024 E1.8611
G1 X73.839 Y36.854 E1.9149
G1 X76.329 Y35.823 E2.3407
G1 X76.658 Y35.734 E2.3945
G1 X79.114 Y35.411 E2.7859
G1 X79.284 Y35.400 E2.8128
G1 X140.716 Y35.400 E12.5182
G1 X140.886 Y35.411 E12.5451
G1 X143.342 Y35.734 E12.9365
G1 X143.671 Y35.823 E12.9903
G1 X146.161 Y36.854 E13.4161
G1 X146.456 Y37.024 E13.4699
G1 X148.594 Y38.665 E13.8957
G1 X148.835 Y38.906 E13.9495
G1 X150.476 Y41.044 E14.3753
G1 X150.646 Y41.339 E14.4291
G1 X151.677 Y43.829 E14.8548
G1 X151.766 Y44.158 E14.9087
G1 X152.089 Y46.614 E15.3001
G1 X152.100 Y46.784 E15.3269
G1 X152.100 Y173.216 E35.3015
G1 X152.089 Y173.386 E35.3283
G1 X151.766 Y175.842 E35.7197
G1 X151.677 Y176.171 E35.7736
G1 X150.646 Y178.661 E36.1993
G1 X150.476 Y178.956 E36.2532
G1 X148.835 Y181.094 E36.6789
G1 X148.594 Y181.335 E36.7327
G1 X146.456 Y182.976 E37.1585
G1 X146.161 Y183.146 E37.2123
G1 X143.671 Y184.177 E37.6381
G1 X143.342 Y184.266 E37.6919
G1 X140.886 Y184.589 E38.0833
G1 X140.716 Y184.600 E38.1102
G1 X139.517 Y184.600 E38.2997
G1 X138.297 Y185.820 E38.5722
G1 X77.703 Y185.820 E48.1452
G1 X76.180 Y184.297 E48.4855
G1 X76.180 Y184.116 E48.5141
G1 X73.839 Y183.146 E48.9144
G1 X73.544 Y182.976 E48.9683
G1 X71.406 Y181.335 E49.3940
G1 X71.165 Y181.094 E49.4479
G1 X69.524 Y178.956 E49.8736
G1 X69.354 Y178.661 E49.9275
G1 X68.323 Y176.171 E50.3532
G1 X68.234 Y175.842 E50.4070
G1 X67.911 Y173.386 E50.7984
G1 X67.900 Y173.216 E50.8253
G1 X67.900 Y47.010 E70.7641
G1 X67.900 Y46.810 F360
G92 E0.0000
G1 E-5.0000 F1800
G1 Z1.475 F1002
G1 X75.608 Y36.857 F4800
G1 Z0.475 F1002
G1 E0.0000 F1800
G92 E0.0000
G1 X144.392 Y36.857 E10.8668 F360
G1 X145.860 Y37.465 E11.1178
G1 X146.078 Y37.591 E11.1576
G1 X148.100 Y39.143 E11.5603
G1 X71.900 Y39.143 E23.5989
G1 X71.855 Y39.177 E23.6078
G1 X71.677 Y39.355 E23.6475
G1 X70.091 Y41.422 E24.0592
G1 X70.087 Y41.429 E24.0603
G1 X149.913 Y41.429 E36.6716
G1 X150.035 Y41.640 E36.7102
G1 X150.894 Y43.714 E37.0649
G1 X69.106 Y43.714 E49.9862
G1 X68.968 Y44.048 E50.0433
G1 X68.902 Y44.293 E50.0833
G1 X68.680 Y46.000 E50.3552
G1 X151.322 Y46.000 E63.4115
G1 X151.412 Y46.681 E63.5200
G1 X151.420 Y46.806 E63.5398
G1 X151.420 Y48.286 E63.7736
G1 X68.580 Y48.286 E76.8611
G1 X68.580 Y50.571 E77.2222
G1 X151.420 Y50.571 E90.3097
G1 X151.420 Y52.857 E90.6709
G1 X68.580 Y52.857 E103.7584
G1 X68.580 Y55.143 E104.1195
G1 X151.420 Y55.143 E117.2070
G1 X151.420 Y57.429 E117.5681
G1 X68.580 Y57.429 E130.6557
G1 X68.580 Y59.714 E131.0168
G1 X151.420 Y59.714 E144.1043
G1 X151.420 Y62.000 E144.4654
G1 X68.580 Y62.000 E157.5529
G1 X68.580 Y64.286 E157.9141
G1 X151.420 Y64.286 E171.0016
G1 X151.420 Y66.571 E171.3627
G1 X68.580 Y66.571 E184.4502
G1 X68.580 Y68.857 E184.8113
G1 X151.420 Y68.857 E197.8989
G1 X151.420 Y71.143 E198.2600
G1 X68.580 Y71.143 E211.3475
G1 X68.580 Y73.429 E211.7086
G1 X151.420 Y73.429 E224.7962
G1 X151.420 Y75.714 E225.1573
G1 X68.580 Y75.714 E238.2448
G1 X68.580 Y78.000 E238.6059
G1 X151.420 Y78.000 E251.6934
G1 X151.420 Y80.286 E252.0545
G1 X68.580 Y80.286 E265.1421
G1 X68.580 Y82.571 E265.5032
G1 X151.420 Y82.571 E278.5907
G1 X151.420 Y84.857 E278.9518
G1 X68.580 Y84.857 E292.0394
G1 X68.580 Y87.143 E292.4005
G1 X151.420 Y87.143 E305.4880
G1 X151.420 Y89.429 E305.8491
G1 X68.580 Y89.429 E318.9366
G1 X68.580 Y91.714 E319.2977
G1 X151.420 Y91.714 E332.3853
G1 X151.420 Y94.000 E332.7464
G1 X68.580 Y94.000 E345.8339
G1 X68.580 Y96.286 E346.1950
G1 X151.420 Y96.286 E359.2826
G1 X151.420 Y98.571 E359.6437
G1 X68.580 Y98.571 E372.7312
G1 X68.580 Y100.857 E373.0923
G1 X151.420 Y100.857 E386.1798
G1 X151.420 Y103.143 E386.5409
G1 X68.580 Y103.143 E399.6285
G1 X68.580 Y105.429 E399.9896
G1 X151.420 Y105.429 E413.0771
G1 X151.420 Y107.714 E413.4382
G1 X68.580 Y107.714 E426.5258
G1 X68.580 Y110.000 E426.8869
G1 X151.420 Y110.000 E439.9744
G1 X151.420 Y112.286 E440.3355
G1 X68.580 Y112.286 E453.4230
G1 X68.580 Y114.571 E453.7841
G1 X151.420 Y114.571 E466.8717
G1 X151.420 Y116.857 E467.2328
G1 X68.580 Y116.857 E480.3203
G1 X68.580 Y119.143 E480.6814
G1 X151.420 Y119.143 E493.7690
G1 X151.420 Y121.429 E494.1301
G1 X68.580 Y121.429 E507.2176
G1 X68.580 Y123.714 E507.5787
G1 X151.420 Y123.714 E520.6662
G1 X151.420 Y126.000 E521.0274
G1 X68.580 Y126.000 E534.1149
G1 X68.580 Y128.286 E534.4760
G1 X151.420 Y128.286 E547.5635
G1 X151.420 Y130.571 E547.9246
G1 X68.580 Y130.571 E561.0122
G1 X68.580 Y132.857 E561.3733
G1 X151.420 Y132.857 E574.4608
G1 X151.420 Y135.143 E574.8219
G1 X68.580 Y135.143 E587.9094
G1 X68.580 Y137.429 E588.2706
G1 X151.420 Y137.429 E601.3581
G1 X151.420 Y139.714 E601.7192
G1 X68.580 Y139.714 E614.8067
G1 X68.580 Y142.000 E615.1678
G1 X151.420 Y142.000 E628.2554
G1 X151.420 Y144.286 E628.6165
G1 X68.580 Y144.286 E641.7040
G1 X68.580 Y146.571 E642.0651
G1 X151.420 Y146.571 E655.1526
G1 X151.420 Y148.857 E655.5138
G1 X68.580 Y148.857 E668.6013
G1 X68.580 Y151.143 E668.9624
G1 X151.420 Y151.143 E682.0499
G1 X151.420 Y153.429 E682.4110
G1 X68.580 Y153.429 E695.4986
G1 X68.580 Y155.714 E695.8597
G1 X151.420 Y155.714 E708.9472
G1 X151.420 Y158.000 E709.3083
G1 X68.580 Y158.000 E722.3958
G1 X68.580 Y160.286 E722.7570
G1 X151.420 Y160.286 E735.8445
G1 X151.420 Y162.571 E736.2056
G1 X68.580 Y162.571 E749.2931
G1 X68.580 Y164.857 E749.6542
G1 X151.420 Y164.857 E762.7418
G1 X151.420 Y167.143 E763.1029
G1 X68.580 Y167.143 E776.1904
G1 X68.580 Y169.429 E776.5515
G1 X151.420 Y169.429 E789.6390
G1 X151.420 Y171.714 E790.0002
G1 X68.580 Y171.714 E803.0877
G1 X68.580 Y173.194 E803.3215
G1 X68.588 Y173.319 E803.3413
G1 X68.678 Y174.000 E803.4498
G1 X151.322 Y174.000 E816.5064
G1 X151.097 Y175.709 E816.7787
G1 X151.032 Y175.952 E816.8185
G1 X150.894 Y176.286 E816.8755
G1 X69.106 Y176.286 E829.7968
G1 X69.965 Y178.360 E830.1515
G1 X70.087 Y178.571 E830.1901
G1 X149.913 Y178.571 E842.8013
G1 X149.909 Y178.578 E842.8025
G1 X148.323 Y180.645 E843.2141
G1 X148.145 Y180.823 E843.2539
G1 X148.100 Y180.857 E843.2628
G1 X71.900 Y180.857 E855.3013
G1 X73.922 Y182.409 E855.7041
G1 X74.140 Y182.535 E855.7438
G1 X75.608 Y183.143 E855.9948
G1 X144.192 Y183.143 E866.8300
G1 X144.392 Y183.143 F360
G92 E0.0000
G1 E-5.0000 F1800
; layer 2, Z = 0.975
M106 S255
M104 S195 T0
; tool H0.500 W0.800
G1 Z1.475 F1002
G1 X67.900 Y46.810 F4800
G1 Z0.975 F1002
G1 E0.0000 F1800
G92 E0.0000
G1 X67.911 Y46.642 E0.0280 F900
G1 X68.234 Y44.161 E0.4441
G1 X68.322 Y43.829 E0.5011
G1 X69.354 Y41.339 E0.9494
G1 X69.524 Y41.044 E1.0061
G1 X71.165 Y38.906 E1.4542
G1 X71.406 Y38.665 E1.5109
G1 X73.544 Y37.024 E1.9590
G1 X73.839 Y36.854 E2.0157
G1 X76.329 Y35.823 E2.4639
G1 X76.658 Y35.734 E2.5205
G1 X79.114 Y35.411 E2.9325
G1 X79.284 Y35.400 E2.9608
G1 X140.716 Y35.400 E13.1771
G1 X140.886 Y35.411 E13.2054
G1 X143.342 Y35.734 E13.6174
G1 X143.671 Y35.823 E13.6740
G1 X146.161 Y36.854 E14.1222
G1 X146.456 Y37.024 E14.1789
G1 X148.594 Y38.665 E14.6270
G1 X148.835 Y38.906 E14.6837
G1 X150.476 Y41.044 E15.1318
G1 X150.646 Y41.339 E15.1885
G1 X151.677 Y43.829 E15.6367
G1 X151.766 Y44.158 E15.6934
G1 X152.089 Y46.614 E16.1053
G1 X152.100 Y46.784 E16.1336
G1 X152.100 Y173.216 E37.1594
G1 X152.089 Y173.386 E37.1877
G1 X151.766 Y175.842 E37.5997
G1 X151.677 Y176.171 E37.6564
G1 X150.646 Y178.661 E38.1045
G1 X150.476 Y178.956 E38.1612
G1 X148.835 Y181.094 E38.6094
G1 X148.594 Y181.335 E38.6660
G1 X146.456 Y182.976 E39.1142
G1 X146.161 Y183.146 E39.1709
G1 X143.671 Y184.177 E39.6190
G1 X143.342 Y184.266 E39.6757
G1 X140.886 Y184.589 E40.0877
G1 X140.716 Y184.600 E40.1160
G1 X139.517 Y184.600 E40.3154
G1 X138.297 Y185.820 E40.6023
G1 X77.703 Y185.820 E50.6792
G1 X76.180 Y184.297 E51.0374
G1 X76.180 Y184.116 E51.0675
G1 X73.839 Y183.146 E51.4889
G1 X73.544 Y182.976 E51.5456
G1 X71.406 Y181.335 E51.9937
G1 X71.165 Y181.094 E52.0504
G1 X69.524 Y178.956 E52.4985
G1 X69.354 Y178.661 E52.5552
G1 X68.323 Y176.171 E53.0034
G1 X68.234 Y175.842 E53.0600
G1 X67.911 Y173.386 E53.4720
G1 X67.900 Y173.216 E53.5003
G1 X67.900 Y47.010 E74.4886
G1 X67.900 Y46.810 F900
G92 E0.0000
G1 E-5.0000 F1800
G1 Z1.975 F1002
G1 X75.608 Y36.857 F4800
G1 Z0.975 F1002
G1 E0.0000 F1800
G92 E0.0000
G1 X144.392 Y36.857 E11.4388 F900
G1 X145.860 Y37.465 E11.7030
G1 X146.078 Y37.591 E11.7448
G1 X148.100 Y39.143 E12.1688
G1 X71.900 Y39.143 E24.8409
G1 X71.855 Y39.177 E24.8503
G1 X71.677 Y39.355 E24.8922
G1 X70.091 Y41.422 E25.3255
G1 X70.087 Y41.429 E25.3267
G1 X149.913 Y41.429 E38.6017
G1 X150.035 Y41.640 E38.6423
G1 X150.894 Y43.714 E39.0156
G1 X69.106 Y43.714 E52.6170
G1 X68.968 Y44.048 E52.6771
G1 X68.902 Y44.293 E52.7192
G1 X68.680 Y46.000 E53.0055
G1 X151.322 Y46.000 E66.7489
G1 X151.412 Y46.681 E66.8631
G1 X151.420 Y46.806 E66.8840
G1 X151.420 Y48.286 E67.1301
G1 X68.580 Y48.286 E80.9064
G1 X68.580 Y50.571 E81.2865
G1 X151.420 Y50.571 E95.0629
G1 X151.420 Y52.857 E95.4430
G1 X68.580 Y52.857 E109.2194
G1 X68.580 Y55.143 E109.5995
G1 X151.420 Y55.143 E123.3758
G1 X151.420 Y57.429 E123.7559
G1 X68.580 Y57.429 E137.5323
G1 X68.580 Y59.714 E137.9124
G1 X151.420 Y59.714 E151.6887
G1 X151.420 Y62.000 E152.0689
G1 X68.580 Y62.000 E165.8452
G1 X68.580 Y64.286 E166.2253
G1 X151.420 Y64.286 E180.0017
G1 X151.420 Y66.571 E180.3818
G1 X68.580 Y66.571 E194.1581
G1 X68.580 Y68.857 E194.5383
