; G-Code generated by Simplify3D(R) Version 4.1.2
; Oct 13, 2021 at 2:09:10 PM
; Settings Summary
;   processName,Process1
;   applyToModels,ecg lid
;   profileName,Ender 3 (modified)
;   profileVersion,2018-06-08 13:27:13
;   baseProfile,Creality CR-10 Mini
;   printMaterial,PLA
;   printQuality,Medium
;   printExtruders,
;   extruderName,Primary Extruder
;   extruderToolheadNumber,0
;   extruderDiameter,0.4
;   extruderAutoWidth,1
;   extruderWidth,0.48
;   extrusionMultiplier,1
;   extruderUseRetract,1
;   extruderRetractionDistance,5
;   extruderExtraRestartDistance,0
;   extruderRetractionZLift,1
;   extruderRetractionSpeed,1800
;   extruderUseCoasting,1
;   extruderCoastingDistance,0.2
;   extruderUseWipe,0
;   extruderWipeDistance,5
;   primaryExtruder,0
;   layerHeight,0.2
;   topSolidLayers,4
;   bottomSolidLayers,4
;   perimeterOutlines,3
;   printPerimetersInsideOut,1
;   startPointOption,3
;   startPointOriginX,0
;   startPointOriginY,110
;   sequentialIslands,0
;   spiralVaseMode,0
;   firstLayerHeightPercentage,95
;   firstLayerWidthPercentage,105
;   firstLayerUnderspeed,0.4
;   useRaft,0
;   raftExtruder,0
;   raftTopLayers,2
;   raftBaseLayers,1
;   raftOffset,3
;   raftSeparationDistance,0.14
;   raftTopInfill,100
;   aboveRaftSpeedMultiplier,0.3
;   useSkirt,1
;   skirtExtruder,0
;   skirtLayers,2
;   skirtOutlines,6
;   skirtOffset,0
;   usePrimePillar,0
;   primePillarExtruder,999
;   primePillarWidth,12
;   primePillarLocation,7
;   primePillarSpeedMultiplier,1
;   useOozeShield,0
;   oozeShieldExtruder,999
;   oozeShieldOffset,2
;   oozeShieldOutlines,1
;   oozeShieldSidewallShape,1
;   oozeShieldSidewallAngle,30
;   oozeShieldSpeedMultiplier,1
;   infillExtruder,0
;   internalInfillPattern,Rectilinear
;   externalInfillPattern,Rectilinear
;   infillPercentage,30
;   outlineOverlapPercentage,15
;   infillExtrusionWidthPercentage,100
;   minInfillLength,5
;   infillLayerInterval,1
;   internalInfillAngles,45,-45
;   overlapInternalInfillAngles,0
;   externalInfillAngles,45,-45
;   generateSupport,1
;   supportExtruder,0
;   supportInfillPercentage,15
;   supportExtraInflation,1
;   supportBaseLayers,2
;   denseSupportExtruder,0
;   denseSupportLayers,2
;   denseSupportInfillPercentage,70
;   supportLayerInterval,1
;   supportHorizontalPartOffset,0.3
;   supportUpperSeparationLayers,1
;   supportLowerSeparationLayers,1
;   supportType,0
;   supportGridSpacing,4
;   maxOverhangAngle,45
;   supportAngles,45
;   temperatureName,Primary Extruder,Heated Bed
;   temperatureNumber,0,0
;   temperatureSetpointCount,2,1
;   temperatureSetpointLayers,1,2,1
;   temperatureSetpointTemperatures,210,195,50
;   temperatureStabilizeAtStartup,1,1
;   temperatureHeatedBed,0,1
;   fanLayers,1,2
;   fanSpeeds,0,100
;   blipFanToFullPower,0
;   adjustSpeedForCooling,1
;   minSpeedLayerTime,15
;   minCoolingSpeedSlowdown,20
;   increaseFanForCooling,0
;   minFanLayerTime,45
;   maxCoolingFanSpeed,100
;   increaseFanForBridging,0
;   bridgingFanSpeed,100
;   use5D,1
;   relativeEdistances,0
;   allowEaxisZeroing,1
;   independentExtruderAxes,0
;   includeM10123,0
;   stickySupport,1
;   applyToolheadOffsets,0
;   gcodeXoffset,0
;   gcodeYoffset,0
;   gcodeZoffset,0
;   overrideMachineDefinition,1
;   machineTypeOverride,0
;   strokeXoverride,220
;   strokeYoverride,220
;   strokeZoverride,250
;   originOffsetXoverride,0
;   originOffsetYoverride,0
;   originOffsetZoverride,0
;   homeXdirOverride,-1
;   homeYdirOverride,-1
;   homeZdirOverride,-1
;   flipXoverride,1
;   flipYoverride,-1
;   flipZoverride,1
;   toolheadOffsets,0,0|0,0|0,0|0,0|0,0|0,0
;   overrideFirmwareConfiguration,1
;   firmwareTypeOverride,RepRap (Marlin/Repetier/Sprinter)
;   GPXconfigOverride,r2
;   baudRateOverride,115200
;   overridePrinterModels,1
;   printerModelsOverride
;   startingGcode,G28 ; home all axes,G1 Z5 F3000 ; lift,G1 X5 Y10 F1500 ; move to prime,G1 Z0.2 F3000 ; get ready to prime,G92 E0 ; reset extrusion distance,G1 Y80 E10 F600 ; prime nozzle,G1 Y100 F5000 ; quick wipe
;   layerChangeGcode,
;   retractionGcode,
;   toolChangeGcode,
;   endingGcode,G28 X0 ; home x axis,M106 S0 ; turn off cooling fan,M104 S0 ; turn off extruder,M140 S0 ; turn off bed,M84 ; disable motors
;   exportFileFormat,gcode
;   celebration,0
;   celebrationSong,Funky Town
;   postProcessing,
;   defaultSpeed,3600
;   outlineUnderspeed,0.5
;   solidInfillUnderspeed,0.8
;   supportUnderspeed,0.8
;   rapidXYspeed,4800
;   rapidZspeed,1002
;   minBridgingArea,50
;   bridgingExtraInflation,0
;   bridgingExtrusionMultiplier,1
;   bridgingSpeedMultiplier,1
;   useFixedBridgingAngle,0
;   fixedBridgingAngle,0
;   applyBridgingToPerimeters,0
;   filamentDiameters,1.75|1.75|1.75|1.75|1.75|1.75
;   filamentPricesPerKg,46|46|46|46|46|46
;   filamentDensities,1.25|1.25|1.25|1.25|1.25|1.25
;   useMinPrintHeight,0
;   minPrintHeight,0
;   useMaxPrintHeight,0
;   maxPrintHeight,0
;   useDiaphragm,0
;   diaphragmLayerInterval,20
;   robustSlicing,1
;   mergeAllIntoSolid,0
;   onlyRetractWhenCrossingOutline,1
;   retractBetweenLayers,1
;   useRetractionMinTravel,0
;   retractionMinTravel,3
;   retractWhileWiping,0
;   onlyWipeOutlines,1
;   avoidCrossingOutline,0
;   maxMovementDetourFactor,3
;   toolChangeRetractionDistance,12
;   toolChangeExtraRestartDistance,-0.5
;   toolChangeRetractionSpeed,600
;   externalThinWallType,0
;   internalThinWallType,2
;   thinWallAllowedOverlapPercentage,10
;   singleExtrusionMinLength,1
;   singleExtrusionMinPrintingWidthPercentage,50
;   singleExtrusionMaxPrintingWidthPercentage,200
;   singleExtrusionEndpointExtension,0.2
;   horizontalSizeCompensation,0
G90
M82
M106 S0
M140 S50
M190 S50
M104 S210 T0
M109 S210 T0
G28 ; home all axes
G1 Z5 F3000 ; lift
G1 X5 Y10 F1500 ; move to prime
G1 Z0.2 F3000 ; get ready to prime
G92 E0 ; reset extrusion distance
G1 Y80 E10 F600 ; prime nozzle
G1 Y100 F5000 ; quick wipe
; process Process1
; layer 1, Z = 0.190
T0
G92 E0.0000
G1 E-5.0000 F1800
; feature skirt
; tool H0.190 W0.504
G1 Z1.000 F1002
G1 X67.728 Y46.778 F4800
G1 Z0.190 F1002
G1 E0.0000 F1800
G92 E0.0000
G1 X67.740 Y46.597 E0.0072 F1440
G1 X68.008 Y44.560 E0.0890
G1 X68.008 Y39.632 E0.2852
G1 X69.632 Y38.008 E0.3766
G1 X71.979 Y38.008 E0.4701
G1 X73.448 Y36.881 E0.5438
G1 X73.762 Y36.699 E0.5583
G1 X76.273 Y35.659 E0.6665
G1 X76.624 Y35.565 E0.6809
G1 X79.096 Y35.240 E0.7802
G1 X79.277 Y35.228 E0.7874
G1 X140.723 Y35.228 E3.2337
G1 X140.904 Y35.240 E3.2409
G1 X143.376 Y35.565 E3.3402
G1 X143.727 Y35.659 E3.3547
G1 X146.237 Y36.699 E3.4629
G1 X146.552 Y36.881 E3.4773
G1 X148.021 Y38.008 E3.5510
G1 X150.368 Y38.008 E3.6445
G1 X151.992 Y39.632 E3.7359
G1 X151.992 Y44.561 E3.9321
G1 X152.260 Y46.597 E4.0139
G1 X152.272 Y46.778 E4.0211
G1 X152.272 Y173.222 E9.0552
G1 X152.260 Y173.403 E9.0624
G1 X151.992 Y175.439 E9.1442
G1 X151.992 Y180.368 E9.3404
G1 X150.368 Y181.992 E9.4318
G1 X148.021 Y181.992 E9.5253
G1 X146.552 Y183.119 E9.5990
G1 X146.237 Y183.301 E9.6134
G1 X143.992 Y184.231 E9.7102
G1 X143.992 Y184.368 E9.7157
G1 X142.368 Y185.992 E9.8071
G1 X77.632 Y185.992 E12.3844
G1 X76.008 Y184.368 E12.4758
G1 X76.008 Y184.231 E12.4813
G1 X73.762 Y183.301 E12.5781
G1 X73.448 Y183.119 E12.5925
G1 X71.979 Y181.992 E12.6662
G1 X69.632 Y181.992 E12.7597
G1 X68.008 Y180.368 E12.8511
G1 X68.008 Y175.440 E13.0473
G1 X67.740 Y173.403 E13.1291
G1 X67.728 Y173.222 E13.1363
G1 X67.728 Y46.778 E18.1704
G92 E0.0000
G1 E-5.0000 F1800
G1 Z1.190 F1002
G1 X68.232 Y46.795 F4800
G1 Z0.190 F1002
G1 E0.0000 F1800
G92 E0.0000
G1 X68.242 Y46.646 E0.0059 F1440
G1 X68.512 Y44.593 E0.0884
G1 X68.512 Y39.841 E0.2776
G1 X69.841 Y38.512 E0.3524
G1 X72.150 Y38.512 E0.4443
G1 X73.728 Y37.301 E0.5235
G1 X73.986 Y37.152 E0.5354
G1 X76.436 Y36.138 E0.6409
G1 X76.723 Y36.061 E0.6528
G1 X79.146 Y35.742 E0.7501
G1 X79.294 Y35.732 E0.7560
G1 X140.706 Y35.732 E3.2009
G1 X140.854 Y35.742 E3.2068
G1 X143.277 Y36.061 E3.3041
G1 X143.564 Y36.138 E3.3160
G1 X146.014 Y37.152 E3.4215
G1 X146.272 Y37.301 E3.4334
G1 X147.850 Y38.512 E3.5126
G1 X150.159 Y38.512 E3.6045
G1 X151.488 Y39.841 E3.6793
G1 X151.488 Y44.594 E3.8686
G1 X151.758 Y46.646 E3.9510
G1 X151.768 Y46.795 E3.9569
G1 X151.768 Y173.205 E8.9896
G1 X151.758 Y173.354 E8.9955
G1 X151.488 Y175.406 E9.0780
G1 X151.488 Y180.159 E9.2672
G1 X150.159 Y181.488 E9.3420
G1 X147.850 Y181.488 E9.4340
G1 X146.272 Y182.699 E9.5132
G1 X146.014 Y182.848 E9.5250
G1 X143.564 Y183.862 E9.6306
G1 X143.488 Y183.883 E9.6337
G1 X143.488 Y184.159 E9.6447
G1 X142.159 Y185.488 E9.7195
G1 X77.841 Y185.488 E12.2802
G1 X76.512 Y184.159 E12.3550
G1 X76.512 Y183.883 E12.3660
G1 X76.436 Y183.862 E12.3692
G1 X73.986 Y182.848 E12.4747
G1 X73.728 Y182.699 E12.4866
G1 X72.150 Y181.488 E12.5658
G1 X69.841 Y181.488 E12.6577
G1 X68.512 Y180.159 E12.7325
G1 X68.512 Y175.407 E12.9217
G1 X68.242 Y173.354 E13.0042
G1 X68.232 Y173.205 E13.0101
G1 X68.232 Y46.795 E18.0428
G92 E0.0000
G1 E-5.0000 F1800
G1 Z1.190 F1002
G1 X68.736 Y46.811 F4800
G1 Z0.190 F1002
G1 E0.0000 F1800
G92 E0.0000
G1 X68.744 Y46.696 E0.0046 F1440
G1 X69.016 Y44.626 E0.0877
G1 X69.016 Y40.049 E0.2699
G1 X70.049 Y39.016 E0.3281
G1 X72.322 Y39.016 E0.4186
G1 X74.009 Y37.721 E0.5033
G1 X74.209 Y37.605 E0.5125
G1 X76.598 Y36.616 E0.6154
G1 X76.821 Y36.556 E0.6246
G1 X79.195 Y36.244 E0.7199
G1 X79.311 Y36.236 E0.7245
G1 X140.689 Y36.236 E3.1682
G1 X140.805 Y36.244 E3.1728
G1 X143.179 Y36.556 E3.2681
G1 X143.402 Y36.616 E3.2773
G1 X145.791 Y37.605 E3.3802
G1 X145.991 Y37.721 E3.3894
G1 X147.678 Y39.016 E3.4741
G1 X149.951 Y39.016 E3.5646
G1 X150.984 Y40.049 E3.6228
G1 X150.984 Y44.627 E3.8050
G1 X151.256 Y46.696 E3.8881
G1 X151.264 Y46.811 E3.8927
G1 X151.264 Y173.189 E8.9241
G1 X151.256 Y173.304 E8.9287
G1 X150.984 Y175.373 E9.0118
G1 X150.984 Y179.951 E9.1940
G1 X149.951 Y180.984 E9.2522
G1 X147.678 Y180.984 E9.3427
G1 X145.991 Y182.279 E9.4273
G1 X145.791 Y182.395 E9.4365
G1 X143.402 Y183.384 E9.5395
G1 X143.179 Y183.444 E9.5487
G1 X142.984 Y183.469 E9.5565
G1 X142.984 Y183.951 E9.5757
G1 X141.951 Y184.984 E9.6338
G1 X78.049 Y184.984 E12.1779
G1 X77.016 Y183.951 E12.2361
G1 X77.016 Y183.469 E12.2552
G1 X76.821 Y183.444 E12.2631
G1 X76.598 Y183.384 E12.2723
G1 X74.209 Y182.395 E12.3752
G1 X74.009 Y182.279 E12.3844
G1 X72.322 Y180.984 E12.4691
G1 X70.049 Y180.984 E12.5595
G1 X69.016 Y179.951 E12.6177
G1 X69.016 Y175.374 E12.8000
G1 X68.744 Y173.304 E12.8831
G1 X68.736 Y173.189 E12.8877
G1 X68.736 Y46.811 E17.9191
G92 E0.0000
G1 E-5.0000 F1800
G1 Z1.190 F1002
G1 X69.240 Y46.828 F4800
G1 Z0.190 F1002
G1 E0.0000 F1800
G92 E0.0000
G1 X69.245 Y46.745 E0.0033 F1440
G1 X69.520 Y44.659 E0.0870
G1 X69.520 Y40.258 E0.2623
G1 X70.258 Y39.520 E0.3038
G1 X72.493 Y39.520 E0.3928
G1 X74.290 Y38.141 E0.4830
G1 X74.433 Y38.058 E0.4896
G1 X76.760 Y37.094 E0.5898
G1 X76.920 Y37.052 E0.5964
G1 X79.245 Y36.745 E0.6898
G1 X79.327 Y36.740 E0.6931
G1 X140.673 Y36.740 E3.1354
G1 X140.755 Y36.745 E3.1387
G1 X143.080 Y37.052 E3.2320
G1 X143.240 Y37.094 E3.2386
G1 X145.567 Y38.058 E3.3389
G1 X145.710 Y38.141 E3.3455
G1 X147.507 Y39.520 E3.4357
G1 X149.742 Y39.520 E3.5246
G1 X150.480 Y40.258 E3.5662
G1 X150.480 Y44.660 E3.7414
G1 X150.755 Y46.745 E3.8252
G1 X150.760 Y46.828 E3.8285
G1 X150.760 Y173.172 E8.8586
G1 X150.755 Y173.255 E8.8618
G1 X150.480 Y175.340 E8.9456
G1 X150.480 Y179.742 E9.1208
G1 X149.742 Y180.480 E9.1624
G1 X147.507 Y180.480 E9.2513
G1 X145.710 Y181.859 E9.3415
G1 X145.567 Y181.942 E9.3481
G1 X143.240 Y182.906 E9.4484
G1 X143.080 Y182.948 E9.4550
G1 X142.480 Y183.027 E9.4791
G1 X142.480 Y183.742 E9.5075
G1 X141.742 Y184.480 E9.5491
G1 X78.258 Y184.480 E12.0765
G1 X77.520 Y183.742 E12.1181
G1 X77.520 Y183.027 E12.1465
G1 X76.920 Y182.948 E12.1706
G1 X76.760 Y182.906 E12.1772
G1 X74.433 Y181.942 E12.2775
G1 X74.290 Y181.859 E12.2841
G1 X72.493 Y180.480 E12.3743
G1 X70.258 Y180.480 E12.4632
G1 X69.520 Y179.742 E12.5048
G1 X69.520 Y175.341 E12.6800
G1 X69.245 Y173.255 E12.7638
G1 X69.240 Y173.172 E12.7670
G1 X69.240 Y46.828 E17.7971
G92 E0.0000
G1 E-5.0000 F1800
G1 Z1.190 F1002
G1 X69.744 Y46.844 F4800
G1 Z0.190 F1002
G1 E0.0000 F1800
G92 E0.0000
G1 X69.747 Y46.795 E0.0020 F1440
G1 X70.045 Y44.534 E0.0928
G1 X70.024 Y44.530 E0.0936
G1 X70.024 Y40.467 E0.2554
G1 X70.467 Y40.024 E0.2803
G1 X72.664 Y40.024 E0.3678
G1 X74.570 Y38.561 E0.4634
G1 X74.656 Y38.511 E0.4674
G1 X76.923 Y37.573 E0.5650
G1 X77.018 Y37.547 E0.5690
G1 X79.295 Y37.247 E0.6604
G1 X79.344 Y37.244 E0.6624
G1 X140.656 Y37.244 E3.1033
G1 X140.705 Y37.247 E3.1053
G1 X142.982 Y37.547 E3.1967
G1 X143.077 Y37.573 E3.2007
G1 X145.344 Y38.511 E3.2983
G1 X145.430 Y38.561 E3.3023
G1 X147.336 Y40.024 E3.3980
G1 X149.533 Y40.024 E3.4854
G1 X149.976 Y40.467 E3.5104
G1 X149.976 Y44.527 E3.6720
G1 X149.955 Y44.531 E3.6729
G1 X150.253 Y46.795 E3.7638
G1 X150.256 Y46.844 E3.7657
G1 X150.256 Y173.156 E8.7945
G1 X150.253 Y173.205 E8.7965
G1 X149.955 Y175.469 E8.8874
G1 X149.976 Y175.473 E8.8882
G1 X149.976 Y179.533 E9.0499
G1 X149.533 Y179.976 E9.0748
G1 X147.336 Y179.976 E9.1623
G1 X145.430 Y181.439 E9.2580
G1 X145.344 Y181.489 E9.2619
G1 X143.077 Y182.427 E9.3596
G1 X142.982 Y182.453 E9.3635
G1 X141.976 Y182.585 E9.4039
G1 X141.976 Y183.533 E9.4416
G1 X141.533 Y183.976 E9.4666
G1 X78.467 Y183.976 E11.9774
G1 X78.024 Y183.533 E12.0023
G1 X78.024 Y182.585 E12.0400
G1 X77.018 Y182.453 E12.0804
G1 X76.923 Y182.427 E12.0844
G1 X74.656 Y181.489 E12.1820
G1 X74.570 Y181.439 E12.1860
G1 X72.664 Y179.976 E12.2817
G1 X70.467 Y179.976 E12.3691
G1 X70.024 Y179.533 E12.3941
G1 X70.024 Y175.473 E12.5557
G1 X70.045 Y175.469 E12.5566
G1 X69.747 Y173.205 E12.6475
G1 X69.744 Y173.156 E12.6494
G1 X69.744 Y46.844 E17.6782
G92 E0.0000
G1 E-5.0000 F1800
G1 Z1.190 F1002
G1 X70.248 Y46.861 F4800
G1 Z0.190 F1002
G1 E0.0000 F1800
G92 E0.0000
G1 X70.249 Y46.844 E0.0007 F1440
G1 X70.542 Y44.617 E0.0901
G1 X70.551 Y44.585 E0.0914
G1 X70.728 Y44.156 E0.1099
G1 X70.528 Y44.116 E0.1180
G1 X70.528 Y40.676 E0.2550
G1 X70.676 Y40.528 E0.2633
G1 X72.783 Y40.528 E0.3472
G1 X72.821 Y40.605 E0.3506
G1 X72.934 Y40.457 E0.3580
G1 X72.957 Y40.434 E0.3593
G1 X74.851 Y38.981 E0.4544
G1 X74.880 Y38.964 E0.4557
G1 X77.085 Y38.051 E0.5507
G1 X77.117 Y38.042 E0.5520
G1 X79.344 Y37.749 E0.6415
G1 X79.361 Y37.748 E0.6421
G1 X140.639 Y37.748 E3.0818
G1 X140.656 Y37.749 E3.0824
G1 X142.883 Y38.042 E3.1719
G1 X142.915 Y38.051 E3.1732
G1 X145.120 Y38.964 E3.2682
G1 X145.149 Y38.981 E3.2695
G1 X147.043 Y40.434 E3.3646
G1 X147.066 Y40.457 E3.3659
G1 X147.179 Y40.605 E3.3733
G1 X147.217 Y40.528 E3.3767
G1 X149.324 Y40.528 E3.4606
G1 X149.472 Y40.676 E3.4689
G1 X149.472 Y44.113 E3.6058
G1 X149.270 Y44.153 E3.6140
G1 X149.449 Y44.585 E3.6326
G1 X149.458 Y44.617 E3.6339
G1 X149.751 Y46.844 E3.7233
G1 X149.752 Y46.861 E3.7240
G1 X149.752 Y173.139 E8.7514
G1 X149.751 Y173.156 E8.7521
G1 X149.458 Y175.383 E8.8415
G1 X149.449 Y175.415 E8.8429
G1 X149.270 Y175.847 E8.8615
G1 X149.472 Y175.887 E8.8696
G1 X149.472 Y179.324 E9.0065
G1 X149.324 Y179.472 E9.0148
G1 X147.217 Y179.472 E9.0987
G1 X147.179 Y179.395 E9.1021
G1 X147.066 Y179.543 E9.1095
G1 X147.043 Y179.566 E9.1108
G1 X145.149 Y181.019 E9.2059
G1 X145.120 Y181.036 E9.2072
G1 X142.915 Y181.949 E9.3022
G1 X142.883 Y181.958 E9.3035
G1 X141.472 Y182.143 E9.3602
G1 X141.472 Y183.324 E9.4072
G1 X141.324 Y183.472 E9.4155
G1 X78.676 Y183.472 E11.9097
G1 X78.528 Y183.324 E11.9180
G1 X78.528 Y182.143 E11.9651
G1 X77.117 Y181.958 E12.0217
G1 X77.085 Y181.949 E12.0230
G1 X74.880 Y181.036 E12.1181
