; G-Code generated by Simplify3D(R) Version 4.1.2
; Oct 15, 2021 at 2:39:07 PM
; Settings Summary
;   processName,Process1
;   applyToModels,ecg clamp
;   profileName,Ender 3 (modified)
;   profileVersion,2018-06-08 13:27:13
;   baseProfile,Creality CR-10 Mini
;   printMaterial,PLA
;   printQuality,Medium
;   printExtruders,
;   extruderName,Primary Extruder
;   extruderToolheadNumber,0
;   extruderDiameter,0.4
;   extruderAutoWidth,1
;   extruderWidth,0.48
;   extrusionMultiplier,1
;   extruderUseRetract,1
;   extruderRetractionDistance,5
;   extruderExtraRestartDistance,0
;   extruderRetractionZLift,1
;   extruderRetractionSpeed,1800
;   extruderUseCoasting,1
;   extruderCoastingDistance,0.2
;   extruderUseWipe,0
;   extruderWipeDistance,5
;   primaryExtruder,0
;   layerHeight,0.2
;   topSolidLayers,4
;   bottomSolidLayers,4
;   perimeterOutlines,3
;   printPerimetersInsideOut,1
;   startPointOption,3
;   startPointOriginX,0
;   startPointOriginY,110
;   sequentialIslands,0
;   spiralVaseMode,0
;   firstLayerHeightPercentage,95
;   firstLayerWidthPercentage,105
;   firstLayerUnderspeed,0.4
;   useRaft,0
;   raftExtruder,0
;   raftTopLayers,2
;   raftBaseLayers,1
;   raftOffset,3
;   raftSeparationDistance,0.14
;   raftTopInfill,100
;   aboveRaftSpeedMultiplier,0.3
;   useSkirt,1
;   skirtExtruder,0
;   skirtLayers,2
;   skirtOutlines,6
;   skirtOffset,0
;   usePrimePillar,0
;   primePillarExtruder,999
;   primePillarWidth,12
;   primePillarLocation,7
;   primePillarSpeedMultiplier,1
;   useOozeShield,0
;   oozeShieldExtruder,999
;   oozeShieldOffset,2
;   oozeShieldOutlines,1
;   oozeShieldSidewallShape,1
;   oozeShieldSidewallAngle,30
;   oozeShieldSpeedMultiplier,1
;   infillExtruder,0
;   internalInfillPattern,Rectilinear
;   externalInfillPattern,Rectilinear
;   infillPercentage,30
;   outlineOverlapPercentage,15
;   infillExtrusionWidthPercentage,100
;   minInfillLength,5
;   infillLayerInterval,1
;   internalInfillAngles,45,-45
;   overlapInternalInfillAngles,0
;   externalInfillAngles,45,-45
;   generateSupport,1
;   supportExtruder,0
;   supportInfillPercentage,15
;   supportExtraInflation,1
;   supportBaseLayers,2
;   denseSupportExtruder,0
;   denseSupportLayers,2
;   denseSupportInfillPercentage,70
;   supportLayerInterval,1
;   supportHorizontalPartOffset,0.3
;   supportUpperSeparationLayers,1
;   supportLowerSeparationLayers,1
;   supportType,0
;   supportGridSpacing,4
;   maxOverhangAngle,45
;   supportAngles,45
;   temperatureName,Primary Extruder,Heated Bed
;   temperatureNumber,0,0
;   temperatureSetpointCount,2,1
;   temperatureSetpointLayers,1,2,1
;   temperatureSetpointTemperatures,210,195,50
;   temperatureStabilizeAtStartup,1,1
;   temperatureHeatedBed,0,1
;   fanLayers,1,2
;   fanSpeeds,0,100
;   blipFanToFullPower,0
;   adjustSpeedForCooling,1
;   minSpeedLayerTime,15
;   minCoolingSpeedSlowdown,20
;   increaseFanForCooling,0
;   minFanLayerTime,45
;   maxCoolingFanSpeed,100
;   increaseFanForBridging,0
;   bridgingFanSpeed,100
;   use5D,1
;   relativeEdistances,0
;   allowEaxisZeroing,1
;   independentExtruderAxes,0
;   includeM10123,0
;   stickySupport,1
;   applyToolheadOffsets,0
;   gcodeXoffset,0
;   gcodeYoffset,0
;   gcodeZoffset,0
;   overrideMachineDefinition,1
;   machineTypeOverride,0
;   strokeXoverride,220
;   strokeYoverride,220
;   strokeZoverride,250
;   originOffsetXoverride,0
;   originOffsetYoverride,0
;   originOffsetZoverride,0
;   homeXdirOverride,-1
;   homeYdirOverride,-1
;   homeZdirOverride,-1
;   flipXoverride,1
;   flipYoverride,-1
;   flipZoverride,1
;   toolheadOffsets,0,0|0,0|0,0|0,0|0,0|0,0
;   overrideFirmwareConfiguration,1
;   firmwareTypeOverride,RepRap (Marlin/Repetier/Sprinter)
;   GPXconfigOverride,r2
;   baudRateOverride,115200
;   overridePrinterModels,1
;   printerModelsOverride
;   startingGcode,G28 ; home all axes,G1 Z5 F3000 ; lift,G1 X5 Y10 F1500 ; move to prime,G1 Z0.2 F3000 ; get ready to prime,G92 E0 ; reset extrusion distance,G1 Y80 E10 F600 ; prime nozzle,G1 Y100 F5000 ; quick wipe
;   layerChangeGcode,
;   retractionGcode,
;   toolChangeGcode,
;   endingGcode,G28 X0 ; home x axis,M106 S0 ; turn off cooling fan,M104 S0 ; turn off extruder,M140 S0 ; turn off bed,M84 ; disable motors
;   exportFileFormat,gcode
;   celebration,0
;   celebrationSong,Funky Town
;   postProcessing,
;   defaultSpeed,3600
;   outlineUnderspeed,0.5
;   solidInfillUnderspeed,0.8
;   supportUnderspeed,0.8
;   rapidXYspeed,4800
;   rapidZspeed,1002
;   minBridgingArea,50
;   bridgingExtraInflation,0
;   bridgingExtrusionMultiplier,1
;   bridgingSpeedMultiplier,1
;   useFixedBridgingAngle,0
;   fixedBridgingAngle,0
;   applyBridgingToPerimeters,0
;   filamentDiameters,1.75|1.75|1.75|1.75|1.75|1.75
;   filamentPricesPerKg,46|46|46|46|46|46
;   filamentDensities,1.25|1.25|1.25|1.25|1.25|1.25
;   useMinPrintHeight,0
;   minPrintHeight,0
;   useMaxPrintHeight,0
;   maxPrintHeight,0
;   useDiaphragm,0
;   diaphragmLayerInterval,20
;   robustSlicing,1
;   mergeAllIntoSolid,0
;   onlyRetractWhenCrossingOutline,1
;   retractBetweenLayers,1
;   useRetractionMinTravel,0
;   retractionMinTravel,3
;   retractWhileWiping,0
;   onlyWipeOutlines,1
;   avoidCrossingOutline,0
;   maxMovementDetourFactor,3
;   toolChangeRetractionDistance,12
;   toolChangeExtraRestartDistance,-0.5
;   toolChangeRetractionSpeed,600
;   externalThinWallType,0
;   internalThinWallType,2
;   thinWallAllowedOverlapPercentage,10
;   singleExtrusionMinLength,1
;   singleExtrusionMinPrintingWidthPercentage,50
;   singleExtrusionMaxPrintingWidthPercentage,200
;   singleExtrusionEndpointExtension,0.2
;   horizontalSizeCompensation,0
G90
M82
M106 S0
M140 S50
M190 S50
M104 S210 T0
M109 S210 T0
G28 ; home all axes
G1 Z5 F3000 ; lift
G1 X5 Y10 F1500 ; move to prime
G1 Z0.2 F3000 ; get ready to prime
G92 E0 ; reset extrusion distance
G1 Y80 E10 F600 ; prime nozzle
G1 Y100 F5000 ; quick wipe
; process Process1
; layer 1, Z = 0.190
T0
G92 E0.0000
G1 E-5.0000 F1800
; feature skirt
; tool H0.190 W0.504
G1 Z1.000 F1002
G1 X101.228 Y128.648 F4800
G1 Z0.190 F1002
G1 E0.0000 F1800
G92 E0.0000
G1 X101.228 Y91.352 E1.4849 F1440
G1 X102.852 Y89.728 E1.5763
G1 X117.148 Y89.728 E2.1455
G1 X118.772 Y91.352 E2.2369
G1 X118.772 Y128.648 E3.7217
G1 X117.148 Y130.272 E3.8132
G1 X102.852 Y130.272 E4.3823
G1 X101.228 Y128.648 E4.4738
G92 E0.0000
G1 E-5.0000 F1800
G1 Z1.190 F1002
G1 X101.732 Y128.439 F4800
G1 Z0.190 F1002
G1 E0.0000 F1800
G92 E0.0000
G1 X101.732 Y91.561 E1.4682 F1440
G1 X103.061 Y90.232 E1.5430
G1 X116.939 Y90.232 E2.0956
G1 X118.268 Y91.561 E2.1704
G1 X118.268 Y128.439 E3.6386
G1 X116.939 Y129.768 E3.7134
G1 X103.061 Y129.768 E4.2660
G1 X101.732 Y128.439 E4.3408
G92 E0.0000
G1 E-5.0000 F1800
G1 Z1.190 F1002
G1 X102.236 Y128.231 F4800
G1 Z0.190 F1002
G1 E0.0000 F1800
G92 E0.0000
G1 X102.236 Y91.769 E1.4516 F1440
G1 X103.269 Y90.736 E1.5098
G1 X116.731 Y90.736 E2.0457
G1 X117.764 Y91.769 E2.1039
G1 X117.764 Y128.231 E3.5555
G1 X116.731 Y129.264 E3.6137
G1 X103.269 Y129.264 E4.1496
G1 X102.236 Y128.231 E4.2078
G92 E0.0000
G1 E-5.0000 F1800
G1 Z1.190 F1002
G1 X102.740 Y128.022 F4800
G1 Z0.190 F1002
G1 E0.0000 F1800
G92 E0.0000
G1 X102.740 Y91.978 E1.4350 F1440
G1 X103.478 Y91.240 E1.4765
G1 X116.522 Y91.240 E1.9959
G1 X117.260 Y91.978 E2.0374
G1 X117.260 Y128.022 E3.4724
G1 X116.522 Y128.760 E3.5140
G1 X103.478 Y128.760 E4.0333
G1 X102.740 Y128.022 E4.0748
G92 E0.0000
G1 E-5.0000 F1800
G1 Z1.190 F1002
G1 X103.244 Y127.813 F4800
G1 Z0.190 F1002
G1 E0.0000 F1800
G92 E0.0000
G1 X103.244 Y92.187 E1.4184 F1440
G1 X103.687 Y91.744 E1.4433
G1 X116.313 Y91.744 E1.9460
G1 X116.756 Y92.187 E1.9709
G1 X116.756 Y127.813 E3.3893
G1 X116.313 Y128.256 E3.4142
G1 X103.687 Y128.256 E3.9169
G1 X103.244 Y127.813 E3.9418
G92 E0.0000
G1 E-5.0000 F1800
G1 Z1.190 F1002
G1 X103.748 Y127.604 F4800
G1 Z0.190 F1002
G1 E0.0000 F1800
G92 E0.0000
G1 X103.748 Y92.396 E1.4017 F1440
G1 X103.896 Y92.248 E1.4101
G1 X116.104 Y92.248 E1.8961
G1 X116.252 Y92.396 E1.9044
G1 X116.252 Y127.604 E3.3062
G1 X116.104 Y127.752 E3.3145
G1 X103.896 Y127.752 E3.8005
G1 X103.748 Y127.604 E3.8089
G92 E0.0000
G1 E-5.0000 F1800
; feature inner perimeter
G1 Z1.190 F1002
G1 X105.260 Y126.240 F4800
G1 Z0.190 F1002
G1 E0.0000 F1800
G92 E0.0000
G1 X105.260 Y93.760 E1.2931 F1080
G1 X114.740 Y93.760 E1.6705
G1 X114.740 Y126.240 E2.9636
G1 X105.460 Y126.240 E3.3331
G1 X105.260 Y126.240 F1080
G1 X104.756 Y126.744 F4800
G92 E0.0000
G1 X104.756 Y93.256 E1.3332 F1080
G1 X115.244 Y93.256 E1.7508
G1 X115.244 Y126.744 E3.0840
G1 X104.956 Y126.744 E3.4936
G1 X104.756 Y126.744 F1080
; feature outer perimeter
G1 X104.252 Y127.248 F4800
G92 E0.0000
G1 X104.252 Y92.752 E1.3734 F720
G1 X115.748 Y92.752 E1.8311
G1 X115.748 Y127.248 E3.2044
G1 X104.452 Y127.248 E3.6541
G1 X104.252 Y127.248 F720
; feature inner perimeter
G1 X107.864 Y122.386 F4800
G92 E0.0000
G1 X108.490 Y122.866 E0.0314 F1080
G1 X109.218 Y123.168 E0.0628
G1 X110.000 Y123.271 E0.0942
G1 X110.782 Y123.168 E0.1256
G1 X111.510 Y122.866 E0.1570
G1 X112.136 Y122.386 E0.1884
G1 X112.616 Y121.760 E0.2198
G1 X112.918 Y121.032 E0.2512
G1 X113.021 Y120.250 E0.2826
G1 X112.918 Y119.468 E0.3140
G1 X112.616 Y118.740 E0.3454
G1 X112.136 Y118.114 E0.3768
G1 X111.510 Y117.634 E0.4082
G1 X110.782 Y117.332 E0.4395
G1 X110.000 Y117.229 E0.4709
G1 X109.218 Y117.332 E0.5023
G1 X108.490 Y117.634 E0.5337
G1 X107.864 Y118.114 E0.5651
G1 X107.393 Y118.728 E0.5959
G1 X107.083 Y119.464 E0.6278
G1 X106.979 Y120.250 E0.6593
G1 X107.082 Y121.032 E0.6907
G1 X107.384 Y121.760 E0.7221
G1 X107.742 Y122.227 E0.7455
G1 X107.864 Y122.386 F1080
G1 X108.223 Y122.027 F4800
G92 E0.0000
G1 X108.744 Y122.426 E0.0261 F1080
G1 X109.350 Y122.677 E0.0522
G1 X110.000 Y122.763 E0.0783
G1 X110.650 Y122.677 E0.1044
G1 X111.256 Y122.426 E0.1306
G1 X111.777 Y122.027 E0.1567
G1 X112.176 Y121.506 E0.1828
G1 X112.427 Y120.900 E0.2089
G1 X112.513 Y120.250 E0.2350
G1 X112.427 Y119.600 E0.2611
G1 X112.176 Y118.994 E0.2872
G1 X111.777 Y118.473 E0.3134
G1 X111.256 Y118.074 E0.3395
G1 X110.650 Y117.823 E0.3656
G1 X110.000 Y117.737 E0.3917
G1 X109.350 Y117.823 E0.4178
G1 X108.744 Y118.074 E0.4439
G1 X108.223 Y118.473 E0.4700
G1 X107.832 Y118.983 E0.4956
G1 X107.573 Y119.597 E0.5222
G1 X107.487 Y120.250 E0.5484
G1 X107.573 Y120.900 E0.5745
G1 X107.824 Y121.506 E0.6006
G1 X108.102 Y121.868 E0.6187
G1 X108.223 Y122.027 F1080
; feature outer perimeter
G1 X108.583 Y121.667 F4800
G92 E0.0000
G1 X108.998 Y121.986 E0.0208 F720
G1 X109.481 Y122.186 E0.0417
G1 X110.000 Y122.254 E0.0625
G1 X110.519 Y122.186 E0.0833
G1 X111.002 Y121.986 E0.1041
G1 X111.417 Y121.667 E0.1250
G1 X111.736 Y121.252 E0.1458
G1 X111.936 Y120.769 E0.1666
G1 X112.004 Y120.250 E0.1875
G1 X111.936 Y119.731 E0.2083
G1 X111.736 Y119.248 E0.2291
G1 X111.417 Y118.833 E0.2500
G1 X111.002 Y118.514 E0.2708
G1 X110.519 Y118.314 E0.2916
G1 X110.000 Y118.246 E0.3124
G1 X109.481 Y118.314 E0.3333
G1 X108.998 Y118.514 E0.3541
G1 X108.583 Y118.833 E0.3749
G1 X108.271 Y119.239 E0.3953
G1 X108.064 Y119.731 E0.4165
G1 X107.996 Y120.250 E0.4374
G1 X108.064 Y120.769 E0.4582
G1 X108.264 Y121.252 E0.4791
G1 X108.461 Y121.508 E0.4919
G1 X108.583 Y121.667 F720
G92 E0.0000
G1 E-5.0000 F1800
; feature inner perimeter
G1 Z1.190 F1002
G1 X110.000 Y102.771 F4800
G1 Z0.190 F1002
G1 E0.0000 F1800
G92 E0.0000
G1 X110.782 Y102.668 E0.0314 F1080
G1 X111.510 Y102.366 E0.0628
G1 X112.136 Y101.886 E0.0942
G1 X112.616 Y101.260 E0.1256
G1 X112.918 Y100.532 E0.1570
G1 X113.021 Y99.750 E0.1884
G1 X112.918 Y98.968 E0.2198
G1 X112.616 Y98.240 E0.2512
G1 X112.136 Y97.614 E0.2826
G1 X111.510 Y97.134 E0.3140
G1 X110.782 Y96.832 E0.3454
G1 X110.000 Y96.729 E0.3768
G1 X109.218 Y96.832 E0.4082
G1 X108.490 Y97.134 E0.4395
G1 X107.864 Y97.614 E0.4709
G1 X107.393 Y98.228 E0.5018
G1 X107.083 Y98.964 E0.5336
G1 X106.979 Y99.750 E0.5651
G1 X107.082 Y100.532 E0.5965
G1 X107.384 Y101.260 E0.6279
G1 X107.864 Y101.886 E0.6593
G1 X108.490 Y102.366 E0.6907
G1 X109.218 Y102.668 E0.7221
G1 X109.802 Y102.745 E0.7455
G1 X110.000 Y102.771 F1080
G1 X110.000 Y102.263 F4800
G92 E0.0000
G1 X110.650 Y102.177 E0.0261 F1080
G1 X111.256 Y101.926 E0.0522
G1 X111.777 Y101.527 E0.0783
G1 X112.176 Y101.006 E0.1045
G1 X112.427 Y100.400 E0.1306
G1 X112.513 Y99.750 E0.1567
G1 X112.427 Y99.100 E0.1828
G1 X112.176 Y98.494 E0.2089
G1 X111.777 Y97.973 E0.2350
G1 X111.256 Y97.574 E0.2611
G1 X110.650 Y97.323 E0.2872
G1 X110.000 Y97.237 E0.3134
G1 X109.350 Y97.323 E0.3395
G1 X108.744 Y97.574 E0.3656
G1 X108.223 Y97.973 E0.3917
G1 X107.832 Y98.483 E0.4173
G1 X107.573 Y99.097 E0.4438
G1 X107.487 Y99.750 E0.4700
G1 X107.573 Y100.400 E0.4961
G1 X107.824 Y101.006 E0.5222
G1 X108.223 Y101.527 E0.5484
G1 X108.744 Y101.926 E0.5745
G1 X109.350 Y102.177 E0.6006
G1 X109.802 Y102.236 E0.6187
G1 X110.000 Y102.263 F1080
; feature outer perimeter
G1 X110.000 Y101.754 F4800
G92 E0.0000
G1 X110.519 Y101.686 E0.0208 F720
G1 X111.002 Y101.486 E0.0417
G1 X111.417 Y101.167 E0.0625
G1 X111.736 Y100.752 E0.0833
G1 X111.936 Y100.269 E0.1041
G1 X112.004 Y99.750 E0.1250
G1 X111.936 Y99.231 E0.1458
G1 X111.736 Y98.748 E0.1666
G1 X111.417 Y98.333 E0.1875
G1 X111.002 Y98.014 E0.2083
G1 X110.519 Y97.814 E0.2291
G1 X110.000 Y97.746 E0.2500
G1 X109.481 Y97.814 E0.2708
G1 X108.998 Y98.014 E0.2916
G1 X108.583 Y98.333 E0.3124
G1 X108.271 Y98.739 E0.3328
G1 X108.064 Y99.231 E0.3541
G1 X107.996 Y99.750 E0.3749
G1 X108.064 Y100.269 E0.3957
G1 X108.264 Y100.752 E0.4166
G1 X108.583 Y101.167 E0.4374
G1 X108.998 Y101.486 E0.4582
G1 X109.481 Y101.686 E0.4791
G1 X109.802 Y101.728 E0.4919
G1 X110.000 Y101.754 F720
; feature solid layer
G1 X109.560 Y103.145 F4800
G92 E0.0000
G1 X114.312 Y107.897 E0.2675 F1152
G1 X114.312 Y107.184 E0.2959
G1 X110.292 Y103.165 E0.5222
G1 X110.894 Y103.085 E0.5464
G1 X110.916 Y103.076 E0.5474
G1 X114.312 Y106.471 E0.7385
G1 X114.312 Y105.758 E0.7669
G1 X111.420 Y102.867 E0.9297
G1 X111.726 Y102.740 E0.9429
G1 X111.885 Y102.619 E0.9508
G1 X114.312 Y105.046 E1.0875
G1 X114.312 Y104.333 E1.1158
G1 X112.288 Y102.309 E1.2298
G1 X112.442 Y102.192 E1.2375
G1 X112.633 Y101.942 E1.2500
G1 X114.312 Y103.620 E1.3445
G1 X114.312 Y102.907 E1.3729
G1 X112.943 Y101.539 E1.4499
G1 X112.990 Y101.476 E1.4531
G1 X113.167 Y101.050 E1.4714
G1 X114.312 Y102.195 E1.5359
G1 X114.312 Y101.482 E1.5643
G1 X113.351 Y100.522 E1.6183
G1 X113.434 Y99.892 E1.6436
G1 X114.312 Y100.769 E1.6930
G1 X114.312 Y100.056 E1.7214
G1 X113.511 Y99.255 E1.7665
G1 X113.369 Y99.114 F1152
G1 X114.146 Y94.188 F4800
G92 E0.0000
G1 X114.312 Y94.354 E0.0093 F1152
G1 X114.312 Y95.067 E0.0377
G1 X113.433 Y94.188 E0.0872
G1 X112.720 Y94.188 E0.1156
G1 X114.312 Y95.780 E0.2052
G1 X114.312 Y96.492 E0.2335
G1 X112.008 Y94.188 E0.3633
G1 X111.295 Y94.188 E0.3916
G1 X114.312 Y97.205 E0.5615
G1 X114.312 Y97.918 E0.5899
G1 X110.582 Y94.188 E0.7999
G1 X109.869 Y94.188 E0.8282
G1 X114.312 Y98.631 E1.0784
G1 X114.312 Y99.344 E1.1067
G1 X112.986 Y98.018 E1.1814
G1 X112.442 Y97.308 E1.2170
G1 X111.732 Y96.764 E1.2526
G1 X109.156 Y94.188 E1.3976
G1 X108.444 Y94.188 E1.4260
G1 X110.636 Y96.381 E1.5494
G1 X110.000 Y96.297 E1.5750
G1 X109.858 Y96.316 E1.5806
G1 X107.731 Y94.188 E1.7004
G1 X107.018 Y94.188 E1.7288
G1 X109.228 Y96.399 E1.8532
G1 X109.106 Y96.415 E1.8581
G1 X108.700 Y96.583 E1.8756
G1 X106.305 Y94.188 E2.0105
G1 X105.688 Y94.188 E2.0350
G1 X105.688 Y94.284 E2.0388
G1 X108.211 Y96.807 E2.1809
G1 X107.808 Y97.117 E2.2011
G1 X105.688 Y94.997 E2.3205
G1 X105.688 Y95.710 E2.3489
G1 X107.441 Y97.462 E2.4475
